assets/icons/video.svg

<svg width="37" height="25" viewBox="0 0 37 25" fill="none" xmlns="http://www.w3.org/2000/svg">
<path d="M31.7421 0H5.25789C2.33684 0 0 2.33684 0 5.25789V19.4737C0 22.3947 2.33684 24.7316 5.25789 24.7316H31.7421C34.6632 24.7316 37 22.3947 37 19.4737V5.25789C37 2.37579 34.6632 0 31.7421 0ZM23.6411 13.2811L15.9684 18.0716C15.2674 18.5 14.3716 17.9937 14.3716 17.1758V7.59474C14.3716 6.77684 15.2674 6.27053 15.9684 6.69895L23.6411 11.4895C24.2642 11.9179 24.2642 12.8526 23.6411 13.2811Z" fill="black"/>
</svg>

<svg xmlns="http://www.w3.org/2000/svg" width="37" height="25" fill="none" xmlns:v="https://vecta.io/nano"><path d="M31.742 0H5.258C2.337 0 0 2.337 0 5.258v14.216c0 2.92 2.337 5.258 5.258 5.258h26.484c2.92 0 5.258-2.337 5.258-5.258V5.258C37 2.376 34.663 0 31.742 0zm-8.1 13.28l-7.673 4.79a1.05 1.05 0 0 1-1.597-.896v-9.58a1.05 1.05 0 0 1 1.597-.896l7.673 4.79c.623.428.623 1.363 0 1.792z" fill="#000"/></svg>
